icons/1-4x-playback-speed-24.svg

<svg id="icons" xmlns="http://www.w3.org/2000/svg" viewBox="0 0 24 24"><path d="M14,23H13V21H8.0459L14,12.09941V20h2v1H14ZM9.9541,20H13V15.60059ZM4,2.207,1.01123,3.63428l.43066.90234L3,3.793V12H4Zm8,1.21533L11.084,3.022,3.00732,21.59229l.916.40039ZM22.68868,9,20.5,11.69552,18.31132,9H17.00489l2.84189,3.5L17.00489,16h1.30643L20.5,13.30448,22.68868,16h1.30643l-2.84189-3.5L23.99511,9Z"/><path fill="none" d="M0 0h24v24H0z"/></svg>

<svg xmlns="http://www.w3.org/2000/svg" viewBox="0 0 24 24"><path d="M14 23h-1v-2H8.046L14 12.1V20h2v1h-2zm-4.046-3H13v-4.4zM4 2.207L1.011 3.634l.43.903L3 3.793V12h1zm8 1.215l-.916-.4-8.077 18.57.916.4zM22.689 9L20.5 11.696 18.311 9h-1.306l2.842 3.5-2.842 3.5h1.306l2.189-2.696L22.689 16h1.306l-2.842-3.5L23.995 9z"/><path fill="none" d="M0 0h24v24H0z"/></svg>
